X: 1
T: Mrs Campbell of Shinness
C: Roderick Campbell
R: jig
S: BSFC handout for upcoming session
S: from Nigel Gatherer's Scottish Collection
F: https://mairicampbell.scot/tunes/mrs-campbell-of-shinness/?fbclid=IwAR0XM40x1mr0k6EB159K3-NCRLKghBp0mSuQKKBxPgzHYJTqHJ2XPMfWv24
Z: 2021 John Chambers <jc:trillian.mit.edu>
M: 6/8
L: 1/8
K: Em
|:\
"Em"Bee efg | "D"faf "Em"g2e | "Em"Bee efg | fge "D"dBA |\
"Em"Bee efg | "D"faf "Em"g2f | "C"efe e2d | efe "D"dBA :|
|:\
"G"BGB BdB | Bgf "C"e2d | "G"BGB d2B | "C"efe "D"dBA |\
"G"BGB BdB | Bgf "C"efg | "Am"a2a "Em"g2f | "D"efe "D"dBA :|
